X:1
T:Page1Insert
T:Howl's Moving Castle 
%%score 1 2 { 3 | 4 }
L:1/8
Q:1/4=100
M:3/4
K:Bb
V:1 treble nm="Violin" snm="Vln."
V:2 alto nm="Viola" snm="Vla."
V:3 treble nm="Piano" snm="Pno."
V:4 bass 
V:1
"^\n" z6 | z6 | z6 | z6 | z6 | z6 | z6 | z6 | z6 | z6 | z6 | z6 | z6 | z6 | z6 | z6 | z6 | z6 | %18
 z6 | z6 | z6 |"_ritard." z6 | z"_exaggerative longing"[Q:1/4=52]"^Lento"{/ac'} b3 a2 | %23
 z{/c'} b2 a ^fe | d4 z2 |[Q:1/4=144]"^Allegro" z6 | z6 | z6 |"^cantabile\n\n" D2 G2 B2 | d4 d2 | %30
 c2 B2 A2 | B6 |!<(! G2 B2 d2!<)! |!f! g4 g2 |!>(! g2 f2 e2!>)! |!mf! f6 | %36
"^cantabile\n\n" A2 d2 f2 | a4 g2 | f2 =e2 f2 | g4 f2 | =e4 d2 | c2 B2 c2 |!>(! d2 c2 G2!>)! | %43
!mp! A6 |"^poco rit.""^cantabile\n\n"!<(! D2 G2 B2!<)! |"^a tempo"!mf! d4 d2 | c2 B2 A2 |!mp! B6 | %48
 G2 B2 d2 | g4 g2 | g2 a2 fe |!mp! f6 |!<(! A2 d2 f2!<)! |!f! a4 g2- | g2 f=e ^de | g4 f2- | %56
 f2 =e=d ^cd | d2 =cd cB | A3 =B ^c2 |!mp! d6- | d6 | z6 | z4 d2 | e4 d2 | c2 B2 A2 | B2 c2 d2 | %66
 F4 F2 | e4 d2 | c2 B2 c2 | d6 | z6 | z2"^dancingly light"!mf! A^c d=e | fd f=e de | %73
 z2!mp! ^c2 c2 | z2 ^c2 c2 | z2 a^g ab | ab ga fg | =ef gf ed | A!<(!^c =e^f g2!<)! |!f! ^f4 f2 | %80
 ^f2 g2 a2 |!mf! b6 | B2!f! (3BA_A (3G^F=F | =e4 e2 | =e2 f2 g2 | a6 | c2 z4 | z6 | z6 | z6 | z6 | %91
 z6 | z6 | z2!mp! (3cdc B2 | z2 (3BcB A2 | z2 (3GAG ^F2 | z2 (3^FGF E2 | z2"^light\n\n" ba bc' | %98
 a z4 z | z2!mp! F2 F2 | z6 | z2 Bc de | B z4 z | z2 f=e fg | a!<(!f dA df!<)! |!mf! a4 g2 | %106
 z2 f=e _e=e | g4 f2 | z2!mp! =ed _d=d | d2 =ef ga | g2 gf g2 | z2 (3ag^f (3=ed^c | d6 | %113
 (3d'^c'=b (3ag^f (3=ed^c |"^molto ritard." d6 | !fermata!^f6 |"^lento" z6 | z6 | z6 | z6 | %120
!p! c6- | (c6 | c6) |"^a tempo\n" z6 | z6 | z6 | (^g6 | g6) |"_ritard.\n\n" f2 e2 d2 |!mp! =B6- | %130
 B6- | B6 |[M:6/8][Q:1/4=144]"^Allegro" z6 | z6 | z6 | z6 |!mf! .D.G.B !>!d2 .c | .B.A.B !>!c2 .B | %138
 .A.G.^F !>!G2 .G | .G.F.C D3 | z6 | z6 | z6 | z6 | z6 | z6 | z6 | z6 |[M:3/4] z6 |"^a tempo" z6 | %150
 z6 | z6 | z6 | z6 | z z2 z2 z | !tenuto!f z .f.f .f.f | !tenuto!f z ff ff |!mf! d2 ^c2 d2 | %158
 f2 =e2 d2 | ^c4 =e2 | A4 A2 | f4 f2 | f2 =e2 d2 | =e4 e2 | A^c Ac =eg |!f! ^f4 f2 | ^f2 g2 a2 | %167
 b2 (3fe^d (3=d^c=c |!mp! B2 G2 A2 |!f! =e4 e2 | =e2 f2 g2 | a2 (3g^f=f (3=e^d=d | z6 | z6 | z6 | %175
 z6 |"^ritard\n\n" z6 | z6 | z6 | z2!mp! (3cdc B2 | z2 (3BcB A2 | z2 (3GAG ^F2 | %182
 z2 (3E^FE !fermata!D2- | D6 |[Q:1/4=92]"^Andante" z6 | z6 |[Q:1/4=144]"^Allegro""^a tempo\n" z6 | %187
 z2!f! =e/d/e/f/ e2 | =e z c2 =B2 | z2 A/G/A/=B/ A2 | A z c2 =e2 | z2 f/=e/f/g/ a2- | a z g2 f2 | %193
 z2 =e/d/e/f/ e2- | e z =e2 g2 | =b4 a2 | g2 ^f2 g2 | a4 z2 | z =B AG ^F z | z =B cd =e z | %200
 z =B AG ^F z | z =e fe dc |"^a little faster\n" =B2 z4 | z2!mf! c'a c'a | =b z4 z | z2 A^G A=B | %206
 A3 G3 | z2 A=B A z | z6 | z3 c d=e | gf =ef ga | =b4 a2- | a2 g^f =f^f | a4 g2 | z2 f=e _e=e | %215
 =e2 de dc | =B2 B^c ^d2 | =e6 | (3=e^d^c (3=c=BA (3^G^F=E | =e2 z2 z2 | =e2 ^fe ^de | %221
[Q:1/4=114]"^Moderato" g3 ^f =e2 | ^d3 ^c d2- | d4 z2 | =e6- | e6 | %226
!ff![Q:1/4=144]"^Allegro" =E^G Ac =B^A | =B^d =e^f ^gf | ^G=B c^d =e2 | z2 !fermata!=b4 |] %230
V:2
 z6 | z6 | z6 | z6 | z6 | z6 | z6 | z6 | z6 | z6 | z6 | z6 | z6 | z6 | z6 | z6 | z6 | z6 | z6 | %19
 z6 | z6 |"_ritard." z6 |!p! z A,- A,4- | A,6 | z6 | z2 G,2 D2 | z2 G,2 A,2 | z2 G,2 D2 | %28
 z2 G,2 D2 | z2 G,2 E2 | z2 ^F,2 D2 | z2 G,2 D2 |!<(! z2 G,2 D2!<)! |!mf! z2 E2 E2 | %34
!>(! z2 A,2 E2!>)! |!mp! z2 D2 D2 | z2 F,2 D2 | z2 G,2 D2 | z2 =E,2 ^C2 | z2 D,2 D,2 | z2 D,2 D,2 | %41
 z2 F,2 D2 | z2 =E,2 D2 | z2 D,2 D,2 |"^poco rit."!<(! D,2 G,2 B,2!<)! |"^a tempo"!f! D4 D2 | %46
 C2 B,2 A,2 | B,6 | G,2 B,2 D2 | G4 G2 | G2 A2 FE |!mf! F6 |!<(! A,2 D2 F2!<)! |!mf! z2 D2 D2 | %54
 ^C4 C2 | C3 F C2 | F,3 F, G,A, | B,6 | A,6 | z2!f!"^cantabile\n\n" ^F2 G2 | A2 ^F2 D2 | %61
 z2 D2 =E2 | ^F2 D2 A,2 | E4 D2 | C2 B,2 A,2 | B,2 C2 D2 | F,4 F2 | E4 D2 | C2 B,2 C2 | D6 | %70
!mp! z2 D,2 D,2 | z2 D,2 D,2 | z2 D,2 D,2 | z2!mf! G^F GA | GF =ED ^CA, | z2 D,2 D,2 | z2 D,2 D,2 | %77
 z2 =E,2 E,2 | z2 =E,2 E,2 | z2!mf! E2 D2 | C2 B,2 A,2 | G2!f! (3F=E^D (3=D_DC | A,2!mf! B,2 C2 | %83
 C4 C2 | C4 D2 | =E2 (3G^F=F (3E_ED |"^cantabile\n\n"!f! C2 G2 F2 | =E2 _E2 =E2 | G2 F2 =E2 | %89
 D2 _D2 =D2 | =E4 A2 | c4 B2 | A4 G2 | ^FA!p! D4- | D2 D2 A,2 | z2 D2 A,2 | z6 | z2!mp! B,2 B,2 | %98
 z2 ^F2 F2 | z2!f! G^F GA | G z4 z | z2 B,C DE | B, z!mp! A,2 A,2 | z2 A,2 A,2 | z2 B,2 B,2 | %105
 A4 G2 | z2 F=E _E=E | G4 F2 | z2!mf! =ED _D=D | D2 =EF GA | G2 GF G2 | D6 | %112
 (3d^c=B (3AG^F (3=ED^C | D6- |"^molto ritard." D6 | !fermata!D6 |"^lento" z6 | z6 | z6 | z6 | z6 | %121
 z6 | z6 | z6 | z6 | z6 | z6 | z6 |"_ritard.\n\n" F2 E2 D2 |!mp! ^G,6- | G,6- | G,6 |[M:6/8] z6 | %133
 z6 | z6 | z6 | z2 z!mp! .A3 | .B3 .E3 | .D3 .C3 | .B,3 .G,3 | z6 | z6 | z6 | z6 |!f! DGB d2 c | %145
 BAB c2 B | AG^F"^rit." G=FE | D=E^F !fermata!G3 |[M:3/4] z4 D2 |!f! E4 D2 | C2 ^A,2 =A,2 | %151
 ^A,2 C2 D2 | F,4 F,2 | E4 D2 | C2 ^A,2 C2 | D6- | D6 |!mp! D,6 | D,6 |!mf! (A,^G, A,B, A,2) | %160
 (A,^G, A,=G, =E,_D,) | z .A .^G.A .B.A | .B.A .G.F =E2- | E2 =EF GF | %164
!f! E/=D/_D/C/ _C/B,/A,/_A,/ =A,2 |!mf! D2 E2 D2 | C2 ^A,2 =A,2 | G,6 | G,2!f! (3BA^G (3=G^F=F | %169
!mf! =E4- E2 | =E4- E2 | A4- A2 |!f! C2 G2 F2 | =E2 _E2 =E2 | G2 F2 =E2 | D2 _D2 =D2 | %176
 =E4"^ritard\n\n" A2 | c4 B2 | A4 G2 | ^FA!mp! (3CDC B,2 | z2 (3B,CB, A,2 | z2 (3G,A,G, ^F,2 | %182
 z2 (3E,^F,E, !fermata!D,2- | D,6 |!ff! =E,2 A,2 C2 | C6 |"^a tempo\n" =E,2 A,2 C2 | =E4 E2 | %188
 D2 C2 =B,2 | C2 C2 C2 | A,2 C2 =E2 | A4 A2 | A2 G2 F2 | G6 | D2 =E2 G2 | =B4 A2 | G2 ^F2 G2 | %197
 A4 G2 | ^F4 =E2 | D2 C2 D2 | =E2 D2 A,2 | =B,2 B,2 B,2 |"^a little faster\n" =B,2 z4 | %203
 z2!mf! CA, CA, | =B, z4 z | z2 A^G A=B | A3 G3 | z2 A=B A z | z6 | z6 | z6 | z2 A,=B, CF | %212
 =E4 z2 | z2 A,=B, C^F | =E4 z2 | =E2 DE DC | =B,2 B,^C E2 | (3=E^D^C (3=C=B,A, (3^G,^F,=E, | %218
 =E,6 | =E6 | =E2 ^FE ^DE | G3 ^F =E2 | ^D3 ^C D2- | D4 z2 | =E6- | E6 |!ff! =E,^G, A,C =B,^A, | %227
 =B,^D =E^F ^GF | ^G,=B, C^D =E2 | z2 !fermata!=B,4 |] %230
V:3
!mp! [Bd][ce] [Bd][ce] [Bd][ce] | [Ac][Bd] [Ac][Bd] [Ac][Bd] | [GB][Ac] [GB][Ac] [GB][Ac] | %3
 [^FA]/[=EG]/ [DF]4- [DF] | z4 [A,D^F]2- | [A,DF]6 |!mf!"_cantable\n\n" D2 G2 B2 | %7
 !arpeggio![EGBd]2 z2 [EGBd]2 | [D-^Fc]2 [D-F-B]2 [DFA]2 |!mp! B6 | z3 G Bd |!mf! [Bg]4 [Bg]2 | %12
 [B-g]2 [B-f]2 [Be]2 |!mp! !arpeggio![FAdf]6 | z3 A df |"_longing\n\n" !arpeggio![Bda]4 [Bdg]2 | %16
 [B-^cf]2 [B-c-=e]2 [Bcf]2 | !arpeggio![Adg]4 [Adf]2 | [A=e]4 [Ad]2 | [D-F-c]2 [D-F-B]2 [DFc]2 | %20
 d2 c2 G2 | A3"_ritard." D GA |!p! [E^FA]6 | [D^FA]6 | z6 | z2!mf! [G,B,D]2 [G,B,D]2 | %26
 z2 [G,B,D]2 [G,B,D]2 | z2 [G,B,D]2 [G,B,D]2 |!mp! z2 [G,B,D]2 [G,B,D]2 | z2 [G,B,E]2 [G,B,E]2 | %30
 z2 [^F,CD]2 [F,CD]2 | z2 [G,B,D]2 [G,B,D]2 |!<(! z2 [G,B,D]2 [G,B,D]2!<)! | %33
!mf! z2 [G,B,E]2 [G,B,E]2 |!>(! z2 [A,CE]2 [A,CE]2!>)! |!mp! z2 [F,A,D]2 [F,A,D]2 | %36
 z2 [F,A,D]2 [F,A,D]2 | z2 [G,B,D]2 [G,B,D]2 | z2 [=E,G,^C]2 [E,G,C]2 | z2 [F,A,D]2 [F,A,D]2 | %40
 z2 [F,A,D]2 [F,A,D]2 | z2 [F,B,D]2 [F,B,D]2 | z2 [=E,G,D]2 [E,G,D]2 | z2 [=E,G,D]2 [E,G,D]2 | %44
"_poco rit." z2 [G,B,D]2 [G,B,D]2 |"_a tempo" z2 [G,B,E]2 [G,B,E]2 | z2 [B,D^F]2 [A,DF]2 | %47
 z2 [B,DF]2 [B,DF]2 | z6 | z2 [B,DG]2 [B,DG]2 | z2 [A,CF]2 [A,CF]2 | z2 [A,CF]2 [A,CF]2 | %52
 z2 [B,DFG]2 [B,DFG]2 | z2 [B,DFA]2 [B,DFG]2 | z2 [B,_DF]2 [B,DG]2 | z2 [A,CDG]2 [A,CDF]2 | %56
 z2 [A,DF]2 [A,DF]2 | z2 [B,DF]2 [B,DF]2 | z2 [A,^C=E]2 [A,CE]2 | z2 [A,D^F]2 [A,DF]2 | %60
 z2 [A,D^F]2 [A,DF]2 | z2 [A,D^F]2 [A,DF]2 | z2 [A,D^F]2 [A,DF]2 | z2 [B,EG]2 [B,EG]2 | %64
 z2 [B,C]2 [A,C]2 | z2 [B,CE]2 [B,DF]2 | z2 [B,DF]2 [B,DF]2 | z2 [B,EG]2 [B,EG]2 | %68
 z2 [A,C]2 [A,CE]2 | z2 [B,DF]2 [B,DF]2 | z4!f!"_legato\n\n" d2 | d/=e/d ^c2 d2 | f2 =e2 d2 | %73
 ^c4 =e2 | A4 A2 | [fa]4 [fa]2 | [fa]2 [=eg]2 [df]2 | [=eg]6 | z2 z4 | z2 [=A,CE]2 [A,CD]2 | %80
 z2 [A,C=E]2 [A,CD]2 | z2 [B,DF]2 [B,DF]2 | z2 [B,DF]2 [B,DF]2 | z2 [B,C=E]2 [B,CG]2 | %84
 z2 [B,CF]2 [B,C=E]2 | z2 [A,C=E]2 [A,CE]2 | z2 [A,CG]2 [A,CF]2 | z2 [^F,=B,=E]2 [F,B,_E]2 | %88
 z2 [^G,=B,F]2 [G,B,=E]2 | z2 [G,A,^C=E]2 [G,A,CE]2 | z2 [G,^C=E]2 [G,CE]2 | z2 [G,=CE]2 [G,CD]2 | %92
 z2 [G,CE]2 [G,B,E]2 | ^fa c'2 z2 | z6 | z6 | D2 G2 B2 | %97
"_proud" !arpeggio![EGBd]4 !arpeggio![GBd]2 | [D^Fc]2 B2 A2 | B6 | G2 B2 d2 | %101
 !arpeggio![Bdg]4 [Bdg]2 | [Bdg]2 a2 fe | f2 z4 | z6 | z2 [B,DFG]2 [B,DFG]2 | z2 [B,_DF]2 [B,DG]2 | %107
 z2 [A,CDA]2 [A,CDF]2 | z2 [A,DF]2 [A,DF]2 | z2 [B,DF]2 [B,DF]2 | z2 [A,^C=E]2 [A,CE]2 | %111
 z2 [^fa][=eg] [df][eg] | [^fa]2 [df]2 d2 | z2 [A,D^F]2 [A,DF]2 |"_molto ritard." ^fg a2 f2 | %115
 !fermata!d6 |"_lento" [Bd][ce] [Bd][ce] [Bd][ce] | [Ac][Bd] [Ac][Bd] [Ac][Bd] | %118
 [GB][Ac] [GB][Ac] [GB][Ac] | A/G/^F- F4 | z6 | z2 (3E^Fc- c2 | c4 z2 |"_a tempo\n" ef ef ef | %124
 de de de | =Bc Bc Bc | d^G =GF G^G | =B^G =GF G^G |"_ritard.\n\n" z6 | z6 | z =B, CD FG | %131
 _A(f f4) |[M:6/8]"_proudly light"!mf! .G.c.e !>!g2 .g | .f.e.d !>!e3 | %134
 .c.e.g!f! !>![ec']2 .[ec'] | .[ec'].[db].[c_a]!mf! [dgb]3 | z6 | z6 | z6 | z6 | %140
 [DG][DG][DG] [_A,CEG]2 G | [=B,DF]ED [G,_B,E]3 | CEG [CEc]2 [Ec] | [Ec][DB][C_A] [DGB]3 | %144
 z3 [A,C]3 | [CD^F]3 [D=F]3 | [DF]3 [DF]3 | C3 !arpeggio!!fermata![A=Bdg]3 | %148
[M:3/4] z4"_a tempo" d2 |!mp! !arpeggio![EGBe]4 [Ed]2 | [Ec]2 [DB]2 [CA]2 | [DB]2 [Ec]2 [Fd]2 | %152
 [DF]4 [DF]2 | [Be]4 [Gd]2 | [Ec]2 [DB]2 [Ec]2 | [Fd]6 | [Fd]6 | z6 | z6 | z6 | z6 | z6 | z6 | %163
 [G=B=e]4 z2 | z6 | z2 [A,CE]2 [A,CD]2 | z2 [A,C=E]2 [A,CD]2 | z2 [B,DF]2 [B,DF]2 | %168
 z2 [DF]2 [DF]2 | z2 [_B,C=E]2 [B,CG]2 | z2 [B,CF]2 [B,C=E]2 | z2 [A,C=E]2 [A,C=E]2 | %172
 z2 [A,CG]2 [A,CF]2 | z2 [^F,=B,=E]2 [F,B,^D]2 | z2 [^G,=B,F]2 [^G,B,=E]2 | %175
 z2 [G,_A,^C=E]2 [G,A,CE]2 | z2 [G,^C=E]2"^ritard\n\n" [G,CE]2 | z2 [G,C=E]2 [G,CD]2 | %178
 z2 [G,CE]2 [G,CD]2 |!mp! z2 [G,CE]2 [G,CE]2 | z2 [A,D^F]2 [A,DF]2 | z2 B,2 C2 | z2 A,4 | z6 | z6 | %185
 z6 |"^a tempo\n" z6 | z2 [C=EFA]2 [CEFA]2 | z2 [DF^G]2 [DFG]2 | z2 [C=EG]2 [CEG]2 | %190
 z2 [C=EG]2 [CEG]2 | z2 [CDFA]2 [CDFA]2 | z2 [=B,DFG]2 [B,DFG]2 | z2 [=B,=EG]2 [B,EG]2 | %194
 z2 [=B,=EG]2 [B,EG]2 | z2 [C=E=B]2 [CEB]2 | z2 [=B,=EA]2 [B,EG]2 | z2 [=B,D^F]2 [B,D=E]2 | %198
 z2 [G,C=E]2 [G,=B,E]2 | z2 [A,D^F]2 [A,DF]2 | z2 [=B,D=EA]2 [B,DEA]2 | z2 [=B,D=EA]2 [B,DEA]2 | %202
!f!"_a little faster\n" =e2 a2 [cc']2 | [=e=e']2 [ee']2 [ee']2 | [dd']2 d'=b d'b | c'=b a=e c=B | %206
 A2 c2 =e2 | [c=ea]3 [cea]2 [cea] | [c=ea]2 =b2 gf | g3 g [=B=e]2 | [=Bd]2 c4 | %211
 z2 [C=EG=B]2 [CEGA]2 | z2 [C_EG]2 [CEA]2 | z2 [=B,D=EA]2 [B,DEG]2 | z2 [=B,=EG]2 [B,EG]2 | %215
 z2 [C=EG]2 [CEG]2 | z2 [=B,^D^F]2 [B,^DF]2 | z2 [=B,=E^G]2 [B,EG]2 | z2 [=E^G=B]2 [EGB]2 | %219
 (3=e^d^c (3=c=BA (3^G^F=E | z2 z2 z2 | z2 z2 z2 | z6 | z6 | z2 [=E,^G,=B,]2 [E,G,B,]2 | %225
 z2 [=E,^G,=B,]2 [E,G,B,]2 | z2!f! [^A,=B,]2 [^G,B,]2 | z2 [^A,=B,]2 [=B,=E]2 | %228
 z2 [=B,^D]2 [B,=E]2 | z2 !arpeggio!!fermata![=B,=E^G=B]4 |] %230
V:4
 z6 | z6 | z6 | z6 |"_slowly\n\n" D,,A,, D,A, ^F,2- | F,6 | z6 | C,,2 [G,B,DE]2 z2 | [D,,D,]6 | %9
 G,,2 [G,B,DE]4 | G,2 [G,B,DE]4 | C,2 [G,CEG]4 | F,,2 [A,CF]4 | B,,2 [F,A,B,D]4 | F,2 [F,A,B,D]4 | %15
 =E,2 [B,DG]4 | A,,2 [G,B,^C]4 | D,2 [F,A,D]4 | C,2 [F,A,D]4 | B,,2 [F,A,B,]4 | A,,2 [=E,G,]4 | %21
 D,2 [G,A,C]4 | [D,^F,A,C]6 | [D,^F,A,C]6 | z6 | G,,6 | D,,6 | G,,6 | D,,6 | C,6 | D,6 | G,,6 | %32
 G,,6 | C,6 | F,6 | B,,6 | F,6 | =E,6 | A,,6 | D,6 | C,6 | B,,6 | A,,6 | D,6 | D,6 | C,,6 | D,,6 | %47
 G,,6 | [F,_A,C]3 [B,,F,A,]3 | E,,6 | E,,6 | D,,6 | G,,,6 | =E,,6 | A,,,6 | D,,6 | C,,6 | B,,,6 | %58
 A,,,6 | D,,6 | A,,,6 | D,,6 | A,,,6 | F,,6 | F,,6 | F,,6 | B,,6 | B,,6 | F,,6 | F,,6 | %70
 B,,2 [B,DF]2 [B,DF]2 | D,2 [A,DF]2 [A,DF]2 | A,,2 [A,DF]2 [A,DF]2 | =E,2 [A,D=E]2 [A,DE]2 | %74
 A,,2 [A,^C=E]2 [A,CE]2 | D,2 [A,DF]2 [A,DF]2 | A,,2 [A,DF]2 [A,DF]2 | =E,2 [A,^C=E]2 [A,CE]2 | %78
!mp! A,,2 [A,^C=E]2 [A,CE]2 | D,,6 | D,,6 | G,,6 | G,,6 | C,,6 | C,,6 | F,,6 | F,,6 | =B,,,6 | %88
 =E,,6 | A,,,6 | A,,,6 | C,,6 | C,,6 | D,,6- | D,,6- | D,,6 | z2 A,4 | C,,2 [G,B,E]2 [G,B,E]2 | %98
 D,,2 [B,D^F]2 [B,DF]2 | G,,2 [B,DF]2 [B,DF]2 | [F,_A,C]3 [B,,F,A,]3 | E,,2 [B,DG]2 [B,DG]2 | %102
 E,,2 [A,CF]2 [A,CF]2 | D,,2 [A,CF]2 [A,CF]2 |!mf! G,,2 [B,DF]2 [B,DF]2 | =E,,6 | A,,6 | D,,6 | %108
 C,,6 | B,,,6 | A,,,6 | D,,2 [A,D^F]2 [A,DF]2 | A,,,2 [A,D^F]2 [A,DF]2 | D,,6 | %114
 D,,2 [A,D^F]2 [A,DF]2 | [A,D^F]6 | z6 | z6 | z6 | z6 | D,,A,, C,D, E,^F, | (3A,CD z4 | z6 | z6 | %124
 z6 | z6 |[K:treble] [A=B]F =ED EF | ^GF ED EF | ^G2 z4 |[K:bass] z G,, D,F, G,_A, | D z z4 | z6 | %132
[M:6/8] z2 z [G,_A,CE]3 | [G,B,DF]3 [CEG]3 | z2 z [F,_A,C_E]3 | [B,DF_A]3 [B,DGB]3 | z6 | z6 | z6 | %139
 z6 |[K:bass] CC[G,,=B,] F,,3 | [G,,G,]3 C,3 | z2 z [F,,F,]3 | [B,,F,B,]3 [E,,E,]3 | z3!mf! G,3 | %145
 [^F,A,]3 [G,B,]3 | [F,B,]3"^rit." [_E,G,B,]3 | [D,^F,A,]3 !fermata![G,,G,]3 |[M:3/4] z6 | %149
 F,,C, F,G, B,2 | F,,6 | B,,F, B,C D2 | B,,F, B,C B,F, | F,,C, F, [B,CE]3 | F,,4 F,,2 | %155
 B,,F, B,C B,F, | B,,F, B,C B,F, | [D,,D,]6 | [D,,D,]6 | [A,,A,]6 | [A,,A,]6 | [D,,D,]6 | [D,D]6 | %163
 [A,,^C,=E,G,]A, B,C B,A, | [A,,^C,=E,G,]4 z2 |!mp! D,,6 | D,,6 | G,,6 | G,,6 | C,,6 | C,,6 | %171
 F,,6 | F,,6 | =B,,,6 | =E,,6 | =A,,,6 | =A,,,6 | C,,6 | C,,6 | D,,6 | D,,6 | D,,6 | D,,6 | z6 | %184
 z6 | [=E,,,=E,,]6 | [=E,,,=E,,]6 | D,,6 | =E,,6 | A,,6 | A,,6 | D,,6 | G,,6 | C,,6 | G,,6 | %195
 ^F,,6 | =B,,6 | =E,,6 | D,,6 | C,,6 | =B,,,6 | =E,,6 | [=E,,=E,]2 [=B,DA]2 [B,D^G]2 | %203
 D,2 [A,CF]2 [A,CF]2 | =E,2 [C=E^G]2 [=B,EG]2 | A,2 [C=EG]2 [CEG]2 | [G,C=E]3 [C,G,B,]3 | %207
 F,2 [C=EA]2 [CEA]2 | F,2 [=B,DG]2 [B,DG]2 | =E,2 [=B,DG]2 [B,DG]2 | A,2 [C=EGA]2 [CEGA]2 | ^F,6 | %212
 =B,,6 | =E,,6 | D,,6 | C,,6 | =B,,,6 | =E,,6 | =B,,,6 | =E,,2 [=E,^G,=B,]2 [E,G,B,]2 | %220
 =E,,2 z2 z2 | A,,,2 =E,,2 =B,,C, | =B,,6 | =B,,6 | [=E,,,=E,,]2 z4 | [=E,,,=E,,]2 z4 | %226
 z2 =E,2 E,2 | z2 =E,2 ^G,2 | z2 ^F,2 ^G,2 | z2 !arpeggio![=E,,=B,,=E,]4 |] %230

